!!!COM:	Bach, Johann Sebastian
!!!OMV:	Oh God, how many heart pains
!!!OTL:	Oh God, how many heart pains
**kern	**fb	**kern	**kern	**kern	**kern
*part5	*part5	*part4	*part3	*part2	*part1
*staff5	*	*staff4	*staff3	*staff2	*staff1
*I"Continuo	*	*I"Voice	*I"Voice	*I"Voice	*I"Voice
*I'Cont.	*	*I'V	*I'V	*I'V	*I'V
*clefF4	*	*clefF4	*clefGv2	*clefG2	*clefG2
*Trd0c0	*	*	*	*	*
*k[f#c#g#d#]	*	*k[f#c#g#d#]	*k[f#c#g#d#]	*k[f#c#g#d#]	*k[f#c#g#d#]
*M4/4	*	*M4/4	*M4/4	*M4/4	*M4/4
=	=	=	=	=	=
8EL	.	8EL	4e	4g#	4b
8F#	.	8F#	.	.	.
8G#	6	8G#	[4e	[4g#	4b
8EJ	.	8EJ	.	.	.
4.A	7	4.A	8eL]	8g#L]	4cc#
.	6	.	16d#L	16f#L	.
.	5	.	16c#JJ	16eJJ	.
.	6	.	[4f#	[4a	4cc#
16G#LL	.	16G#LL	.	.	.
16F#JJ	.	16F#JJ	.	.	.
=3	=3	=3	=3	=3	=3
8BL	7	8BL	8f#L]	8aL]	4dd#
8A	7	8A	8d#J	16g#L	.
.	6	.	.	16f#JJ	.
8G#	5	8G#	8BL	8bL	4dd#
8F#J	6	8F#J	8BJ	8aJ	.
2E;	.	2E;	2B;	2g#;	2ee;
=4	=4	=4	=4	=4	=4
8D#L	6	8D#L	4f#	4b	4ff#
8E	.	8E	.	.	.
8F#	#	8F#	8eL	8a#XL	4ff#
8G#J	.	8G#J	8d#J	8bJ	.
8A#XL	6 5	8A#XL	4c#	8cc#L	4ee
8F#	.	8F#J	.	8a#	.
8B	.	4B	8d#L	8f#	4dd#
8BBJ	.	.	8eJ	8g#J	.
=5	=5	=5	=5	=5	=5
8EL	6 #4| 2	8EL	4f#	4a#X	4cc#
8D#	.	8D#	.	.	.
8C#	7 4 2	8C#	4f#	4b	8dd#L
8BBJ	.	8BBJ	.	.	8eeJ
8EL	6 5	8EL	4g#	4b	2cc#
8C#J	.	8C#J	.	.	.
4F#	#	4F#	8f#L	4a#	.
.	.	.	8eJ	.	.
=6	=6	=6	=6	=6	=6
2BB;	.	2BB;	2d#;	2f#;	2b;
8EL	.	8EL	4e	8g#L	4b
8F#	.	8F#	.	8anJ	.
8G#	6	8G#	[4e	[4b	4b
8EJ	.	8EJ	.	.	.
=7	=7	=7	=7	=7	=7
!!linebreak:original
8AL	9	8AL	8eL]	4b]	4cc#
8G#	.	8G#	8c#J	.	.
8F#	.	8F#	[4f#	[4a	4cc#
8EJ	.	8EJ	.	.	.
8D#L	6 5	8D#L	8f#L]	8a]	4b
8BB	6	8BB	8d#J	4g#	.
8C#	6 5	8C#	8eL	.	4a
8D#J	6 5	8D#J	8f#J	8f#	.
=8	=8	=8	=8	=8	=8
2E;	.	2E;	2B;	2e;	2g#;
8G#L	5	8G#L	8BL	4d#	4b
8F#	.	8F#	8AJ	.	.
8E#X	6 5	8E#X	4G#	4c#	4b
8C#J	.	8C#J	.	.	.
=9	=9	=9	=9	=9	=9
8F#L	5	4F#	8AL	8c#L	4a
8FF#	6	.	8BJ	8d#J	.
8C#	.	8c#L	4c#	4e	4g#
8BBJ	.	8BJ	.	.	.
8AAL	6 4 2	8AL	4d#	4B	4f#
8GG#	.	8G#	.	.	.
8FF#	7 4 2	8F#	[4e	4B	8g#L
8EEJ	.	8EJ	.	.	8aJ
=10	=10	=10	=10	=10	=10
8AAL	6 5	8AL	8e]	4c#	2f#
8FF#J	.	8F#J	4A	.	.
4BB	7 3	4B	.	4d#	.
.	.	.	16G#LL	.	.
.	.	.	16F#JJ	.	.
2EE;	.	2E;	2G#;	2B;	2e;
=11	=11	=11	=11	=11	=11
8EL	.	8EL	8G#L	4e	4b
8F#	.	8F#	8AJ	.	.
8G#	6	8G#	4B	4e	4b
8EJ	.	8EJ	.	.	.
8AL	.	8AL	8AL	4.e	4cc#
8B	.	8B	8EJ	.	.
8A	.	8A	[4c#	.	4cc#
8G#J	.	8G#J	.	8e	.
=12	=12	=12	=12	=12	=12
!!pagebreak:original
8F#L	6 5	8F#L	4c#]	8aL	4dd#
8D#	.	8D#J	.	8f#J	.
8G#	#	4G#	4B#X	4g#	4dd#
8GG#J	.	.	.	.	.
2C#;	.	2C#;	2c#;	2g#;	2ee;
=13	=13	=13	=13	=13	=13
8G#L	5	8G#L	4d#	4g#	4b
8F#	.	8F#	.	.	.
8E	.	8E	[4e	4g#	4b
8D#J	.	8D#J	.	.	.
8C#L	6 5	8C#L	8eL]	8g#L	4a
8D#	6 5	8D#	8BJ	8f#J	.
8E	.	8E	4B	4e	8g#L
8C#J	.	8C#J	.	.	8f#J
=14	=14	=14	=14	=14	=14
8AAL	6 5	8AAL	8c#L	4e	4.f#
8FF#J	.	8FF#J	8AJ	.	.
4BB	.	4BB	8F#L	4d#	.
.	.	.	8BJ	.	8e
2EE;	.	2E;	2G#;	2B;	2e;
=||	=||	=||	=||	=||	=||
*-	*-	*-	*-	*-	*-
!!!system-decoration: s1,s2,s3,s4,s5
